X:1
T:Some Joyful Day
T:Thoro Harris, 1906
T:Some Joyful Day
T:Public Domain
T:Public Domain
T:Public Domain
C:Thoro Harris, 1906
Z:Public Domain
%%score ( 1 2 ) ( 3 4 )
L:1/8
M:4/4
K:F
V:1 treble 
V:2 treble 
V:3 bass 
V:4 bass 
V:1
 C2 | [FA]3 [FG] [FB]2 [FA]2 | (F2 z G) [CF]2 F2 | [Ac]3 [^G=B] [Gd]2 [Ac]2 | [FA]6 [FA]2 | %5
w: 1.~Some|when all life’s surg-|es * And storms|are o’er, Our bark|shall safe-|
w: 2.~Some|in realms of glo-|ry * My Sav-|shall see, And tell|the won-|
w: 3.~Some|I’ll meet the loved|ones * Who long|a- way, And ne-|ver- more|
 [Gc]3 [EB] [EG]2 [E^G]2 | (A2 d2) [Ac]2 [_Ad]2 | [Ge]3 G [_GA]2 [F=B]2 | [Ec]6 [Ac]2 | %9
w: ly an- chor On|Ca- * naan’s peace-|shore; Some day, when|the tu-|
w: drous sto- ry Of|Him * who died|me; Some day I’ll|the cho-|
w: be par- ted Through|Heav’n’s * e- ter-|day; Some day, ar-|in bright-|
 [GB]3 [FB] [Ec]2 [EB]2 | [EB]2 [FA]4 [DA]2 | [^CG]3 [CG] [CA]2 [DF]2 | [DF]6 [DF]2 | %13
w: mult And din of|war shall cease,|The saints shall all|be ga-|
w: rus Of an- gel|choirs a- bove,|Some day with all|the ran-|
w: ness, The Lamb shall|I be- hold;|Some day in robes|of white-|
 D3 D [DE]2 [DF]2 | [Fd]2 [Fc]4 [CA]2 | [B,B]3 D [CA]2 [CEG]2 | [CF]6 ||"^Refrain" [FA]2 | %18
w: thered With- in the|peace. Some day,|O joy- ful day!|world|shall|
w: somed I’ll sing His|love. * *||||
w: ness I’ll walk the|gold. * *||||
 [Ec]3 [EG] [^D^F]2 [EG]2 | [FA]6 [FA]2 | [FG]3 D [=B,F]2 [B,E]2 | C6 C2 | %22
w: pass a- way; Up-|on that|fair ce- les- tial|We’ll meet|
w: ||||
w: ||||
 [CA]3 [CB] [Fc][FA][_EG][EF] | (DEFF e2) f2 | (z FF)[CA] [DB]2 [CE]2 | C_E_DD C2 |] %26
w: no more. * * * *||||
w: ||||
w: ||||
V:2
 C2 | x8 | A3 (C2 x F2) | x8 | x8 | x8 | F4 x4 | x3 _G x4 | x8 | x8 | x8 | x8 | x8 | D3 D x4 | x8 | %15
w: day,||of time *||||ful|all||||||port of||
w: day,||ior I *||||for|join||||||death- less||
w: day,||have passed *||||nal|rayed||||||streets of||
 x3 D x4 | x6 || x2 | x8 | x8 | x3 D x4 | C6 C2 | x8 | d4 D4 | c3 x5 | F6 |] %26
w: This|||||shore,|to part|||||
w: |||||||||||
w: |||||||||||
V:3
 [F,A,]2 | [F,C]3 [F,B,] [F,D]2 [C,C]2 | [D,=B,]2 [E,_B,]2 [F,A,]2 [A,C]2 | %3
w: ~|~ ~ ~ ~|~ ~ ~ ~|
 [F,_E]3 [F,D] [F,=B,]2 [F,C]2 | [F,F]6 [F,C]2 | [C,E]3 [C,D] [C,C]2 [C,C]2 | %6
w: ~ ~ ~ ~|~ ~|~ ~ ~ ~|
 (C2 B,2) [F,C]2 [F,=B,]2 | [G,C]3 [G,E] [G,_E]2 [G,D]2 | [C,C]6 [CE]2 | %9
w: ~ * ~ ~|~ ~ ~ ~|~ ~|
 [CE]3 [C,D] [C,C]2 [C,G,]2 | [^C,G,]2 [D,F,]4 [D,F,]2 | [A,,A,]3 [A,,E,] [A,,E,]2 [^C,A,]2 | %12
w: ~ ~ ~ ~|~ ~ ~|~ ~ ~ ~|
 [D,A,]6 [D,A,]2 | [D,F,]3 [D,F,] [D,G,]2 [=B,,^G,]2 | [C,A,]2 [C,A,]4 [D,^F,]2 | %15
w: ~ ~|~ ~ ~ ~|~ ~ ~|
 [G,,G,]3 [G,,F,] [C,E,]2 [C,B,]2 | [F,A,]6 || z2 | z [C,G,][C,G,][C,B,] [C,A,]2 [C,B,]2 | %19
w: ~ ~ ~ ~|~||~ ~ ~ ~ ~|
 A,F,A,D C2 [F,C]2 | [G,=B,]3 [G,B,] [G,,G,]2 [G,,G,]2 | E,E,G,A, B,2 [E,B,]2 | %22
w: O joy- ful day! ~ ~|~ ~ ~ shall|pass a- way; ~ ~ ~|
 [F,A,]3 [G,C] [A,C][F,A,][G,B,][A,C] | [B,D][B,,C][B,,B,][B,,A,] [=B,,^G,]4 | %24
w: ~ ~ ~ ~ ce- les-|tial shore, ~ ~ ~|
 z [C,A,][C,A,][D,^F,] [G,,G,]2 [C,B,]2 | A,A,B,G, A,2 |] %26
w: ~ ~ ~ to part|no more. * * *|
V:4
 x2 | x8 | x8 | x8 | x8 | x8 | F,4 x4 | x8 | x8 | x8 | x8 | x8 | x8 | x8 | x8 | x8 | x6 || x2 | %18
w: ||||||~||||||||||||
 x8 | F,6 x2 | x8 | C,6 x2 | x8 | x8 | x8 | F,,6 |] %26
w: |~||~|||||

